X: 9515
T: Darkey's Dream
R: barndance
M: 4/4
K: Gmajor
|:D2EF GABG|B2BA Bd (3def|gfga gfed|BGBG A2BA|
DDEF GABG|B2BA Bd (3def|gfga gfed|BcBA G2G2:|
|:g3a bagf|gage dcB2|g3g bagf|a2ab a2(3def|
g3a bagf|gage dcBd|gfga gfed|BcBA G2G2:|

